X:1
T:23. Livet
T:23. Livet
T:Symra
T:Chr. Haslerud
T:Ivar Aasen
C:Chr. Haslerud
Z:Ivar Aasen
%%score [ 1 2 3 4 ]
L:1/8
Q:1/4=50
M:3/8
K:Eb
V:1 treble nm="Soprano"
V:2 treble nm="Alto"
V:3 treble-8 nm="Tenor"
V:4 bass nm="Bass"
V:1
"^Langsomt"!p! c2 e | d c =B | c2 A | G z _B | A3/2 G/ F | (ED) E | G3 | F2 z |!<(! E2 F!<)! | %9
w: Heim- en|er baa- de|vond og|god; det|skif- ter med|Sut _ og|Ga-|man.|Hæv er|
 G A G | (FE) F | G z!pp! F | E3/2 D/ C | G2 E | D3 | C2 z |] %16
w: den, som med|sa- * me|Mod kann|ta- ka mot|alt til-|sa-|man.|
V:2
!p! G2 G | G G G | G2 F | D z E | E3/2 D/ C | (B,A,) G, | E3 | D2 z |!<(! C2 C!<)! | C F E | D2 C | %11
w: Heim- en|er baa- de|vond og|god; det|skif- ter med|Sut _ og|Ga-|man.|Hæv er|den, som med|sa- me|
 D z!pp! D | C3/2 =B,/ C | C2 C | =B,3 | C2 z |] %16
w: Mod kann|ta- ka mot|alt til-|sa-|man.|
V:3
!p! G2 c | d e f | e2 c | =B z _B | c3/2 B/ A | (GF) E | B3 | B2 z |!<(! G2 G!<)! | G c c | c2 c | %11
w: Heim- en|er baa- de|vond og|god; det|skif- ter med|Sut _ og|Ga-|man.|Hæv er|den, som med|sa- me|
 =B z!pp! G | G3/2 F/ G | G2 G | F3 | E2 z |] %16
w: Mod kann|ta- ka mot|alt til-|sa-|man.|
V:4
!p! E,2 C, | =B,, C, D, | E,2 F, | G, z G,, | A,,3/2 A,,/ A,, | B,,2 C, | B,,3 | B,,2 z | %8
w: Heim- en|er baa- de|vond og|god; det|skif- ter med|Sut og|Ga-|man.|
!<(! C,2 D,!<)! | E, F, G, | A,2 A, | G, z!pp! =B,, | C,3/2 D,/ E, | E,2 C, | G,,3 | C,2 z |] %16
w: Hæv er|den, som med|sa- me|Mod kann|ta- ka mot|alt til-|sa-|man.|

